icons/folder-rules-open.svg

<svg xmlns="http://www.w3.org/2000/svg" viewBox="0 0 32 32">
  <path d="M28.96692,12H9.44152a2,2,0,0,0-1.89737,1.36754L4,24V10H28a2,2,0,0,0-2-2H15.1241a2,2,0,0,1-1.28038-.46357L12.5563,6.46357A2,2,0,0,0,11.27592,6H4A2,2,0,0,0,2,8V24a2,2,0,0,0,2,2H26l4.80523-11.21213A2,2,0,0,0,28.96692,12Z" style="fill: #ef5350"/>
  <path d="M30,14H28a3,3,0,0,0-6,0H20a2,2,0,0,0-2,2V26a2,2,0,0,0,2,2H30a2,2,0,0,0,2-2V16A2,2,0,0,0,30,14Zm-5-1a1,1,0,1,1-1,1A1.003,1.003,0,0,1,25,13ZM23.45331,24.59729,20.36,21.504l1.09063-1.09064,2.00269,1.996,5.096-5.096L29.64,18.412Z" style="fill: #ffcdd2;fill-rule: evenodd"/>
</svg>

<svg xmlns="http://www.w3.org/2000/svg" viewBox="0 0 32 32"><path fill="#ef5350" d="M28.967 12H9.442a2 2 0 0 0-1.898 1.368L4 24V10h24a2 2 0 0 0-2-2H15.124a2 2 0 0 1-1.28-.464l-1.288-1.072A2 2 0 0 0 11.276 6H4a2 2 0 0 0-2 2v16a2 2 0 0 0 2 2h22l4.805-11.212A2 2 0 0 0 28.967 12Z"/><path fill="#ffcdd2" fill-rule="evenodd" d="M30 14h-2a3 3 0 0 0-6 0h-2a2 2 0 0 0-2 2v10a2 2 0 0 0 2 2h10a2 2 0 0 0 2-2V16a2 2 0 0 0-2-2Zm-5-1a1 1 0 1 1-1 1 1.003 1.003 0 0 1 1-1Zm-1.547 11.597-3.093-3.093 1.09-1.09 2.003 1.995 5.096-5.096 1.091 1.099Z"/></svg>
